svgs/sharp-light/unlock-keyhole.svg

<svg xmlns="http://www.w3.org/2000/svg" viewBox="0 0 448 512"><!--! Font Awesome Pro 6.4.0 by @fontawesome - https://fontawesome.com License - https://fontawesome.com/license (Commercial License) Copyright 2023 Fonticons, Inc. --><path d="M224 32c-53 0-96 43-96 96v64H416h32v32V480v32H416 32 0V480 224 192H32 96V128C96 57.3 153.3 0 224 0c58 0 107 38.6 122.7 91.4L316 100.6C304.2 60.9 267.5 32 224 32zM32 224V480H416V224H32zM264 368H184 168V336h16 80 16v32H264z"/></svg>

<svg xmlns="http://www.w3.org/2000/svg" viewBox="0 0 448 512"><!--! Font Awesome Pro 6.6.0 by @fontawesome - https://fontawesome.com License - https://fontawesome.com/license (Commercial License) Copyright 2024 Fonticons, Inc. --><path d="M224 32c-53 0-96 43-96 96l0 64 288 0 32 0 0 32 0 256 0 32-32 0L32 512 0 512l0-32L0 224l0-32 32 0 64 0 0-64C96 57.3 153.3 0 224 0c58 0 107 38.6 122.7 91.4L316 100.6C304.2 60.9 267.5 32 224 32zM32 224l0 256 384 0 0-256L32 224zM264 368l-80 0-16 0 0-32 16 0 80 0 16 0 0 32-16 0z"/></svg>
